src/media/icons/methodology/AgileDeve.svg

<?xml version="1.0" encoding="UTF-8"?>
<svg width="80px" height="80px" viewBox="0 0 80 80" version="1.1" xmlns="http://www.w3.org/2000/svg" xmlns:xlink="http://www.w3.org/1999/xlink">
    <title>01 Base / Ic / AgileDeve</title>
    <g id="01-Base-/-Ic-/-AgileDeve" stroke="none" stroke-width="1" fill="none" fill-rule="evenodd">
        <g id="scrum" transform="translate(0.000000, 1.000000)" fill-rule="nonzero">
            <g id="Group">
                <g transform="translate(10.065810, 59.883041)" id="Path">
                    <path d="M69.1638886,9.51577348 L64.2060505,3.72520285 L60.3165532,7.04879692 L61.6933513,8.65693807 C61.6933513,8.65693807 28.8346225,8.65693807 28.5737645,8.65693807 C22.0767105,8.65693807 15.9205291,5.82469202 11.683676,0.886473734 L7.79759084,4.21399177 C9.24553206,5.90163576 10.8763639,7.38847537 12.6474347,8.65693807 L0.0122837007,8.65693807 L0.0122837007,13.7700285 L61.3470192,13.7700285 L60.091352,15.1309602 L63.8546002,18.596158 L69.1007641,12.9101694 C69.9793899,11.958012 70.0065164,10.4998344 69.1638886,9.51577348 Z" fill="#4D4D4D"></path>
                    <path d="M46.8940511,6.73129738 L43.4643395,2.93597508 C44.4168381,2.07696906 45.3009233,1.12958864 46.0920278,0.12044851 L50.1215934,3.27309442 C49.1499868,4.51255394 48.0640736,5.67609337 46.8940511,6.73129738 Z" fill="#E5305C"></path>
                </g>
                <path d="M38.6397454,18.8863604 C27.1594329,18.8863604 17.3087579,25.9953816 13.2508715,36.04379 C8.35701105,33.805768 5.11820863,28.9028653 5.11820863,23.3434671 C5.11820863,17.3589164 8.90107662,12.242755 14.200811,10.2555252 L13.0055387,12.3640566 L17.4590627,14.8835801 L21.319898,8.07295047 C21.9700811,6.92595991 21.6408097,5.47307109 20.5593322,4.71796471 L13.8041499,-6.66729426e-15 L10.8715869,4.19044801 L12.5964233,5.39510371 C5.25708269,8.05810766 4.84894128e-15,15.0983742 4.84894128e-15,23.3434671 C4.84894128e-15,31.1864394 4.72308292,38.0738422 11.7838223,40.9811553 C11.4081458,42.894171 11.2247433,44.9175695 11.28002,46.9247603 L9.7051472,45.782888 L6.69888206,49.9209597 L13.1230869,54.5790413 C14.1460462,55.3215228 15.5673728,55.2067043 16.4574292,54.2960044 L21.63808,48.9945639 L17.9756605,45.4227367 L16.4014702,47.0336076 C15.9462908,34.498944 26.1038876,23.9738598 38.6397454,23.9997921 C50.9094564,23.9997921 60.8916692,33.9901941 60.8916692,46.2699708 C60.8916692,49.8933213 60.0034894,53.4888629 58.3230109,56.6676117 L62.8488722,59.055256 C64.9167991,55.1434091 66.0097073,50.7223005 66.0097073,46.2699708 C66.0097073,31.170573 53.7316366,18.8863604 38.6397454,18.8863604 Z" id="Path" fill="#4D4D4D"></path>
            </g>
            <ellipse id="Oval" fill="#4D4D4D" cx="38.5571717" cy="46.4124277" rx="10.0658103" ry="10.0451669"></ellipse>
        </g>
    </g>
</svg>

<?xml version="1.0" encoding="utf-8"?>
<!-- Generator: Adobe Illustrator 23.0.6, SVG Export Plug-In . SVG Version: 6.00 Build 0)  -->
<svg version="1.1" id="Calque_1" xmlns="http://www.w3.org/2000/svg" xmlns:xlink="http://www.w3.org/1999/xlink" x="0px" y="0px"
	 viewBox="0 0 80 80" style="enable-background:new 0 0 80 80;" xml:space="preserve">
<style type="text/css">
	.st0{fill:#BB9815;}
	.st1{fill:#FAD549;}
	.st2{fill:#3E3207;}
	.st3{fill:#7D650E;}
	.st4{fill:#F9CA1C;}
	.st5{fill:#FBDF77;}
	.st6{fill:#FDEAA4;}
	.st7{fill:#FEF4D2;}
</style>
<title>01 Base / Ic / AgileDeve</title>
<g id="scrum" transform="translate(0.000000, 1.000000)">
	<g id="Path" transform="translate(10.065810, 59.883041)">
		<path class="st0" d="M69.2,9.5l-5-5.8L60.3,7l1.4,1.6c0,0-32.9,0-33.1,0c-6.5,0-12.7-2.8-16.9-7.8L7.8,4.2
			c1.4,1.7,3.1,3.2,4.8,4.4H0v5.1h61.3l-1.3,1.4l3.8,3.5l5.2-5.7C70,12,70,10.5,69.2,9.5z"/>
		<path class="st1" d="M46.9,6.7l-3.4-3.8c1-0.9,1.8-1.8,2.6-2.8l4,3.2C49.1,4.5,48.1,5.7,46.9,6.7z"/>
	</g>
	<path class="st0" d="M38.6,18.9C27.2,18.9,17.3,26,13.3,36c-4.9-2.2-8.1-7.1-8.1-12.7c0-6,3.8-11.1,9.1-13.1L13,12.4l4.5,2.5
		l3.9-6.8c0.7-1.1,0.3-2.6-0.8-3.4L13.8,0l-2.9,4.2l1.7,1.2C5.3,8.1,0,15.1,0,23.3C0,31.2,4.7,38.1,11.8,41
		c-0.4,1.9-0.6,3.9-0.5,5.9l-1.6-1.1l-3,4.1l6.4,4.7c1,0.7,2.4,0.6,3.3-0.3l5.2-5.3L18,45.4L16.4,47C15.9,34.5,26.1,24,38.6,24
		c12.3,0,22.3,10,22.3,22.3c0,3.6-0.9,7.2-2.6,10.4l4.5,2.4c2.1-3.9,3.2-8.3,3.2-12.8C66,31.2,53.7,18.9,38.6,18.9z"/>
	<ellipse id="Oval" class="st0" cx="38.6" cy="46.4" rx="10.1" ry="10"/>
</g>
<rect x="-108.6" y="106.8" class="st2" width="25.7" height="25.7"/>
<rect x="-70.8" y="106.8" class="st3" width="25.7" height="25.7"/>
<rect x="-30.4" y="106.8" class="st0" width="25.7" height="25.7"/>
<rect x="4.7" y="106.8" class="st4" width="25.7" height="25.7"/>
<rect x="39.9" y="106.8" class="st1" width="25.7" height="25.7"/>
<rect x="83.5" y="106.8" class="st5" width="25.7" height="25.7"/>
<rect x="122.8" y="106.8" class="st6" width="25.7" height="25.7"/>
<rect x="172.9" y="106.8" class="st7" width="25.7" height="25.7"/>
</svg>
